icons/dna-two-color.svg

<?xml version="1.0" encoding="UTF-8"?><svg xmlns="http://www.w3.org/2000/svg" viewBox="0 0 50 50"><g id="uuid-d1cd12fe-430c-458f-8954-ece310b08adb"><g><path d="M26.26,16.28c-4.4,2.42-7.02,6.25-7.02,10.28s2.62,7.86,7.02,10.28c4.4-2.42,7.02-6.25,7.02-10.28s-2.62-7.86-7.02-10.28Z" fill="#ffcd00"/><path d="M32.8,25.1c0-4.24-2.61-8.26-7.03-10.88,2.4-1.42,4.26-3.26,5.47-5.31,.02-.04,.05-.07,.06-.11,.97-1.7,1.5-3.55,1.5-5.45,0-.07,0-.14,0-.21V1.25c0-.28-.23-.5-.5-.5s-.5,.22-.5,.5v1.28h-14.06V1.25c0-.28-.22-.5-.5-.5s-.5,.22-.5,.5v1.88c0,.07-.01,.14-.01,.21,0,1.9,.53,3.75,1.5,5.45,.01,.04,.04,.08,.06,.11,1.2,2.06,3.07,3.89,5.47,5.31-4.42,2.62-7.03,6.63-7.03,10.88,0,2.18,.69,4.29,1.95,6.19,.03,.07,.06,.12,.11,.17,1.19,1.73,2.88,3.28,4.96,4.52-4.3,2.56-6.91,6.47-7.02,10.61h0v2.17c0,.28,.22,.5,.5,.5s.5-.22,.5-.5v-1.66h14.06v1.66c0,.28,.22,.5,.5,.5s.5-.22,.5-.5v-2.16h0c-.11-4.15-2.71-8.06-7.02-10.62,4.42-2.62,7.03-6.64,7.03-10.88Zm-15.06,.5h14.04c-.09,1.75-.68,3.45-1.68,5.01h-10.67c-1.01-1.56-1.59-3.26-1.68-5.01Zm1.83-6.24h10.37c1.1,1.62,1.74,3.4,1.83,5.24h-14.04c.1-1.84,.73-3.63,1.83-5.24ZM31.8,3.53c-.03,1.59-.48,3.14-1.27,4.59h-11.53c-.79-1.45-1.24-3-1.27-4.59h14.08Zm-12.19,5.59h10.31c-1.21,1.76-2.96,3.31-5.15,4.52-2.19-1.21-3.95-2.77-5.15-4.52Zm5.15,5.66c1.79,.98,3.28,2.2,4.42,3.57h-8.84c1.15-1.37,2.63-2.58,4.42-3.57Zm-7,31.31c.11-1.38,.52-2.71,1.19-3.96h11.63c.67,1.25,1.08,2.58,1.19,3.96h-14.01Zm12.2-4.96h-10.39c1.2-1.78,2.95-3.35,5.2-4.58,2.25,1.24,3.99,2.81,5.2,4.58Zm-5.2-5.72c-1.89-1.04-3.45-2.34-4.62-3.8h9.24c-1.17,1.46-2.73,2.76-4.62,3.8Z"/></g></g><g id="uuid-be80f5aa-db4b-440a-99bd-92635116c56f"><text transform="translate(-.07 54.73)" font-family="Roboto-Regular, Roboto" font-size="6"><tspan x="0" y="0">D</tspan><tspan x="3.93" y="0" letter-spacing="0em">N</tspan><tspan x="8.26" y="0">A</tspan></text></g></svg>

<svg xmlns="http://www.w3.org/2000/svg" viewBox="0 0 50 50"><g id="a90db732-ed92-46c1-81d4-7d6dfa69fd02" data-name="ICONS"><path d="M26.26,16.28c-4.4,2.43-7,6.26-7,10.29s2.62,7.85,7,10.28c4.4-2.43,7-6.25,7-10.28S30.66,18.71,26.26,16.28Z" fill="#fdd600"/><path d="M32.8,25.1c0-4.25-2.61-8.26-7-10.88A15.28,15.28,0,0,0,31.24,8.9a.39.39,0,0,0,.06-.11,11,11,0,0,0,1.5-5.45,1.48,1.48,0,0,0,0-.21V1.25a.5.5,0,0,0-1,0V2.53H17.73V1.25a.5.5,0,0,0-.5-.5.5.5,0,0,0-.5.5V3.13a1.48,1.48,0,0,0,0,.21,11,11,0,0,0,1.5,5.45.39.39,0,0,0,.06.11,15.36,15.36,0,0,0,5.47,5.32c-4.42,2.62-7,6.63-7,10.88a11.13,11.13,0,0,0,2,6.18.57.57,0,0,0,.12.18,15.52,15.52,0,0,0,5,4.51c-4.31,2.56-6.91,6.47-7,10.61h0v2.16a.5.5,0,0,0,1,0V47.09H31.79v1.66a.5.5,0,0,0,1,0V46.59h0c-.11-4.14-2.71-8-7-10.61C30.19,33.35,32.8,29.34,32.8,25.1Zm-15.06.5h14a10.18,10.18,0,0,1-1.68,5H19.42A10.18,10.18,0,0,1,17.74,25.6Zm1.83-6.25H30a10.32,10.32,0,0,1,1.83,5.25h-14A10.32,10.32,0,0,1,19.57,19.35ZM31.8,3.53a10,10,0,0,1-1.27,4.6H19a10,10,0,0,1-1.28-4.6ZM19.61,9.13h10.3a14.86,14.86,0,0,1-5.15,4.52A15,15,0,0,1,19.61,9.13Zm5.15,5.65a15.57,15.57,0,0,1,4.42,3.57H20.34A15.57,15.57,0,0,1,24.76,14.78Zm-7,31.31a10,10,0,0,1,1.19-4H30.58a10,10,0,0,1,1.18,4Zm12.2-5H19.56a14.85,14.85,0,0,1,5.2-4.59A14.76,14.76,0,0,1,30,41.13Zm-5.2-5.72a15.26,15.26,0,0,1-4.62-3.81h9.24A15.26,15.26,0,0,1,24.76,35.41Z" fill="#231f20"/></g><g id="ad9cb78a-e207-44ea-8e45-41e7a6e17c51" data-name="LABELS"><text transform="translate(-0.07 54.73)" font-size="6" fill="#231f20" font-family="Roboto-Regular, Roboto">D<tspan x="3.93" y="0" letter-spacing="0.01em">N</tspan><tspan x="8.26" y="0">A</tspan></text></g></svg>
